X:1333
L:1/8
M:4/4
K:F
 A/B/ | cfAf cfAf | cfAf gGG A/B/ | cfAf cfAf | c(f e/f/g/)e/ fFF :: A/B/ | cFAc f>gfd | 
 cF d/c/B/A/ B(GG) A/B/ |1 cFAf a/g/f/e/ fc | df e/f/g/e/ f(FF) :|2 cfaf gefc | 
 df (e/f/)g/e/ f(FF) ||

